!!!SOCIAL_FUNCTION:	miscellaneous songs
!!!PDT:	1929
!!!OTL: No_165_The_Snow_Is_Falling.krn
!!!REG: Southwest
!!!LANG: Non-Tone
!!!LING_GROUP: Uto-Aztecan
**kern
*staff1
*clefF4
*k[]
*M3/8
8A\
=1
8.e\L
16e\L
(16.e\
32c\JJk)
=2||
*M4/8
4c\
8r
8e\
=3||
*M3/8
8.c\L
16B\K
8A\J
=4
8F\L
8A\
8A\J
=5
8.F\L
16A\K
8F\J
=6||
*M4/8
16.A\LL
32A\JJk
16A\LL
16A\JJ
8r
8A\
=7||
*M5/8
8.c\L
16B\K
8A\
8F\J
8r
=8||
*M4/8
8A\
16F\LL
16F\JJ
24A\LL
24A\
24A\JJ
16A\LL
16A\JJ
=9
4A\
4r
==
*-
